src/assets/sponsors2/TheGraph.svg

<svg height="32" viewBox="0 0 123 32" width="123" xmlns="http://www.w3.org/2000/svg" xmlns:xlink="http://www.w3.org/1999/xlink"><linearGradient id="a" x1="19.482422%" x2="80.517578%" y1="0%" y2="100%"><stop offset="0" stop-color="#00d3e6"/><stop offset="1" stop-color="#2b4cd4"/></linearGradient><g fill="none" fill-rule="evenodd"><path d="m40.408 21v-10.296h3.438v-2.484h-9.468v2.484h3.402v10.296zm7.308 0v-4.392c0-1.728.864-2.556 1.998-2.556 1.026 0 1.584.792 1.584 2.088v4.86h2.466v-5.274c0-2.34-1.296-3.924-3.474-3.924-1.17 0-2.106.504-2.574 1.224v-5.526h-2.466v13.5zm12.456.198c2.286 0 4.068-1.314 4.608-3.132h-2.574c-.288.612-1.044.99-1.908.99-1.53 0-2.322-.918-2.43-1.98h7.02c.126-3.384-2.052-5.274-4.698-5.274-2.736 0-4.734 1.998-4.734 4.68 0 2.736 1.962 4.716 4.716 4.716zm2.016-5.742h-4.23c.234-.99 1.026-1.656 2.16-1.656.846 0 1.764.45 2.07 1.656zm14.832 5.76c3.798 0 6.876-2.61 6.3-7.866h-6.606v2.448h3.906c-.288 1.764-1.53 2.898-3.6 2.898-2.484 0-4.104-1.8-4.104-4.086s1.62-4.086 4.068-4.086c1.224 0 2.412.54 3.042 1.476h2.988c-.864-2.412-3.348-3.996-6.03-3.996-3.87 0-6.696 2.898-6.696 6.606s2.826 6.606 6.732 6.606zm10.602-.216v-4.302c0-1.476.774-2.394 1.944-2.394.396 0 .738.072 1.116.198v-2.502c-.306-.09-.576-.108-.828-.108-1.008 0-1.926.666-2.232 1.548v-1.44h-2.466v9zm7.974.198c1.242 0 2.196-.63 2.592-1.206v1.008h2.466v-9h-2.466v1.008c-.396-.576-1.35-1.206-2.592-1.206-2.394 0-4.23 2.142-4.23 4.698s1.836 4.698 4.23 4.698zm.522-2.25c-1.35 0-2.268-1.044-2.268-2.448s.918-2.448 2.268-2.448 2.268 1.044 2.268 2.448-.918 2.448-2.268 2.448zm9.396 5.814v-4.77c.414.576 1.368 1.206 2.61 1.206 2.394 0 4.23-2.142 4.23-4.698s-1.836-4.698-4.23-4.698c-1.242 0-2.196.63-2.61 1.206v-1.008h-2.466v12.762zm2.07-5.814c-1.35 0-2.268-1.044-2.268-2.448s.918-2.448 2.268-2.448 2.268 1.044 2.268 2.448-.918 2.448-2.268 2.448zm9.036 2.052v-4.392c0-1.728.864-2.556 1.998-2.556 1.026 0 1.584.792 1.584 2.088v4.86h2.466v-5.274c0-2.34-1.296-3.924-3.474-3.924-1.17 0-2.106.504-2.574 1.224v-5.526h-2.466v13.5z" fill="#fff" fill-opacity=".96" fill-rule="nonzero"/><path d="m24.2924242 21.1221444c.5720881.5695435.6078436 1.470691.1072666 2.0816851l-.1072666.1181458-6.2501894 6.2223899c-.6102272.6075131-1.5994318.6075131-2.209659 0-.5720881-.5695436-.6078436-1.4706911-.1072666-2.0816851l.1072666-.1181459 6.2501894-6.2223898c.6102272-.6075131 1.5994318-.6075131 2.209659 0zm-8.9174242-19.1221444c5.1776515 0 9.375 4.17867953 9.375 9.3333019 0 5.1546224-4.1973485 9.3333019-9.375 9.3333019s-9.375-4.1786795-9.375-9.3333019c0-5.15462237 4.1973485-9.3333019 9.375-9.3333019zm0 3.11110064c-3.4517045 0-6.25 2.78566065-6.25 6.22220126 0 3.4365406 2.7982955 6.2222013 6.25 6.2222013 3.4518939 0 6.25-2.7856607 6.25-6.2222013 0-3.43654061-2.7981061-6.22220126-6.25-6.22220126zm10.9376894-3.11110064c.8628788 0 1.5623106.69632089 1.5623106 1.55555032s-.6994318 1.55555032-1.5623106 1.55555032c-.8630682 0-1.5625-.69632089-1.5625-1.55555032s.6994318-1.55555032 1.5625-1.55555032z" fill="url(#a)"/></g></svg>

<?xml version="1.0" encoding="UTF-8"?>
<svg width="123px" height="32px" viewBox="0 0 123 32" version="1.1" xmlns="http://www.w3.org/2000/svg" xmlns:xlink="http://www.w3.org/1999/xlink">
    <title>Logo / Blue / The-Graph-Logo</title>
    <defs>
        <linearGradient x1="19.4824219%" y1="0%" x2="80.5175781%" y2="100%" id="linearGradient-1">
            <stop stop-color="#00D3E6" offset="0%"></stop>
            <stop stop-color="#2B4CD4" offset="100%"></stop>
        </linearGradient>
    </defs>
    <g id="The-Graph" stroke="none" stroke-width="1" fill="none" fill-rule="evenodd">
        <g id="The-Graph---Assets" transform="translate(-232.000000, -456.000000)">
            <g id="Logo-/-Blue-/-The-Graph-Logo" transform="translate(232.000000, 456.000000)">
                <path d="M40.408,21 L40.408,10.704 L43.846,10.704 L43.846,8.22 L34.378,8.22 L34.378,10.704 L37.78,10.704 L37.78,21 L40.408,21 Z M47.716,21 L47.716,16.608 C47.716,14.88 48.58,14.052 49.714,14.052 C50.74,14.052 51.298,14.844 51.298,16.14 L51.298,21 L53.764,21 L53.764,15.726 C53.764,13.386 52.468,11.802 50.29,11.802 C49.12,11.802 48.184,12.306 47.716,13.026 L47.716,7.5 L45.25,7.5 L45.25,21 L47.716,21 Z M60.172,21.198 C62.458,21.198 64.24,19.884 64.78,18.066 L62.206,18.066 C61.918,18.678 61.162,19.056 60.298,19.056 C58.768,19.056 57.976,18.138 57.868,17.076 L64.888,17.076 C65.014,13.692 62.836,11.802 60.19,11.802 C57.454,11.802 55.456,13.8 55.456,16.482 C55.456,19.218 57.418,21.198 60.172,21.198 Z M62.188,15.456 L57.958,15.456 C58.192,14.466 58.984,13.8 60.118,13.8 C60.964,13.8 61.882,14.25 62.188,15.456 Z M77.02,21.216 C80.818,21.216 83.896,18.606 83.32,13.35 L76.714,13.35 L76.714,15.798 L80.62,15.798 C80.332,17.562 79.09,18.696 77.02,18.696 C74.536,18.696 72.916,16.896 72.916,14.61 C72.916,12.324 74.536,10.524 76.984,10.524 C78.208,10.524 79.396,11.064 80.026,12 L83.014,12 C82.15,9.588 79.666,8.004 76.984,8.004 C73.114,8.004 70.288,10.902 70.288,14.61 C70.288,18.318 73.114,21.216 77.02,21.216 Z M87.622,21 L87.622,16.698 C87.622,15.222 88.396,14.304 89.566,14.304 C89.962,14.304 90.304,14.376 90.682,14.502 L90.682,12 C90.376,11.91 90.106,11.892 89.854,11.892 C88.846,11.892 87.928,12.558 87.622,13.44 L87.622,12 L85.156,12 L85.156,21 L87.622,21 Z M95.596,21.198 C96.838,21.198 97.792,20.568 98.188,19.992 L98.188,21 L100.654,21 L100.654,12 L98.188,12 L98.188,13.008 C97.792,12.432 96.838,11.802 95.596,11.802 C93.202,11.802 91.366,13.944 91.366,16.5 C91.366,19.056 93.202,21.198 95.596,21.198 Z M96.118,18.948 C94.768,18.948 93.85,17.904 93.85,16.5 C93.85,15.096 94.768,14.052 96.118,14.052 C97.468,14.052 98.386,15.096 98.386,16.5 C98.386,17.904 97.468,18.948 96.118,18.948 Z M105.514,24.762 L105.514,19.992 C105.928,20.568 106.882,21.198 108.124,21.198 C110.518,21.198 112.354,19.056 112.354,16.5 C112.354,13.944 110.518,11.802 108.124,11.802 C106.882,11.802 105.928,12.432 105.514,13.008 L105.514,12 L103.048,12 L103.048,24.762 L105.514,24.762 Z M107.584,18.948 C106.234,18.948 105.316,17.904 105.316,16.5 C105.316,15.096 106.234,14.052 107.584,14.052 C108.934,14.052 109.852,15.096 109.852,16.5 C109.852,17.904 108.934,18.948 107.584,18.948 Z M116.62,21 L116.62,16.608 C116.62,14.88 117.484,14.052 118.618,14.052 C119.644,14.052 120.202,14.844 120.202,16.14 L120.202,21 L122.668,21 L122.668,15.726 C122.668,13.386 121.372,11.802 119.194,11.802 C118.024,11.802 117.088,12.306 116.62,13.026 L116.62,7.5 L114.154,7.5 L114.154,21 L116.62,21 Z" id="TheGraph" fill-opacity="0.96" fill="#FFFFFF" fill-rule="nonzero"></path>
                <g id="Icons-/-Logo-/--Dark-background-Copy" fill="url(#linearGradient-1)">
                    <path d="M24.2924242,21.1221444 C24.8645123,21.6916879 24.9002678,22.5928354 24.3996908,23.2038295 L24.2924242,23.3219753 L18.0422348,29.5443652 C17.4320076,30.1518783 16.442803,30.1518783 15.8325758,29.5443652 C15.2604877,28.9748216 15.2247322,28.0736741 15.7253092,27.4626801 L15.8325758,27.3445342 L22.0827652,21.1221444 C22.6929924,20.5146313 23.682197,20.5146313 24.2924242,21.1221444 Z M15.375,2 C20.5526515,2 24.75,6.17867953 24.75,11.3333019 C24.75,16.4879243 20.5526515,20.6666038 15.375,20.6666038 C10.1973485,20.6666038 6,16.4879243 6,11.3333019 C6,6.17867953 10.1973485,2 15.375,2 Z M15.375,5.11110064 C11.9232955,5.11110064 9.125,7.89676129 9.125,11.3333019 C9.125,14.7698425 11.9232955,17.5555032 15.375,17.5555032 C18.8268939,17.5555032 21.625,14.7698425 21.625,11.3333019 C21.625,7.89676129 18.8268939,5.11110064 15.375,5.11110064 Z M26.3126894,2 C27.1755682,2 27.875,2.69632089 27.875,3.55555032 C27.875,4.41477975 27.1755682,5.11110064 26.3126894,5.11110064 C25.4496212,5.11110064 24.7501894,4.41477975 24.7501894,3.55555032 C24.7501894,2.69632089 25.4496212,2 26.3126894,2 Z" id="g"></path>
                </g>
            </g>
        </g>
    </g>
</svg>
